teeny/outline/pin.svg

<svg width="15" height="15" viewBox="0 0 15 15" fill="none" xmlns="http://www.w3.org/2000/svg">
<path fill-rule="evenodd" clip-rule="evenodd" d="M7.5 8.49478C8.604 8.49478 9.5 7.59934 9.5 6.49606C9.5 5.39278 8.604 4.49738 7.5 4.49738C6.396 4.49738 5.5 5.39278 5.5 6.49606C5.5 7.59934 6.396 8.49478 7.5 8.49478Z" stroke="black" stroke-linecap="square"/>
<path fill-rule="evenodd" clip-rule="evenodd" d="M13.5 6.49606C13.5 11.4928 8.5 14.4909 7.5 14.4909C6.5 14.4909 1.5 11.4928 1.5 6.49606C1.5 3.18522 4.187 0.5 7.5 0.5C10.813 0.5 13.5 3.18522 13.5 6.49606Z" stroke="black" stroke-linecap="square"/>
</svg>

<svg viewBox="0 0 15 15" xmlns="http://www.w3.org/2000/svg"><g stroke-linecap="square" stroke="#000" fill-rule="evenodd" fill="none"><path d="M7.5 8.49c1.1 0 2-.9 2-2 0-1.11-.9-2-2-2 -1.104 0-2 .89-2 1.99s.89 1.99 2 1.99Z"/><path d="M13.5 6.49c0 4.99-5 7.99-6 7.99s-6-3-6-8c0-3.32 2.68-6 6-6 3.31 0 6 2.68 6 5.99Z"/></g></svg>
